archdroid-icon-theme/Archdroid-DeepPurple/places/scalable/folder-opensuse.svg

<svg fill="#673AB7" height="48" viewBox="0 0 48 48" width="48" xmlns="http://www.w3.org/2000/svg"><path d="m8 8c-2.21 0-3.980469 1.79-3.980469 4l-.019531 24c0 2.21 1.79 4 4 4h32c2.21 0 4-1.79 4-4v-20c0-2.21-1.79-4-4-4h-16l-4-4zm21 8c5.522275 0 10 4.477161 10 10 0 5.522959-4.477725 10-10 10-5.522394 0-10-4.477041-10-10 0-5.522839 4.477486-10 10-10zm.048828 1.384766c-3.303825 0-5.191768 1.352607-6.423828 2.876953.94407.258939 1.601897.474628 1.814453.544922.00263-.14274.025391-1.429688.025391-1.429688l.019531-.039062.046875-.015625c.290023.042319 6.48669.957875 9.095703 2.478515.32266.189482.479804.389325.679688.59375.720754.745377 1.678398 3.849103 1.779297 4.490235l-.039063.066406c-.037299.013748-.129216.07715-.248047.158203-.608738.425588-2.030929 1.421872-3.855469 1.259766-1.641033-.146207-3.782641-1.088385-6.365234-2.789063.11369.268144.650573 1.543704.740234 1.757813l.03711.042968c.374185.193069 3.962 2.023627 5.742187 1.986329 1.436727-.028692 2.970106-.729571 3.583985-1.097657l.195312-.037109c.054634.042678.046153.124183.029297.201172-.037658.175973-.123062.498525-.181641.648437l-.046875.125c-.069816.185537-.138985.365662-.269531.472657-.361991.329471-.93949.58967-1.84375.986328-1.39883.611364-3.667004.996568-5.773437.984375-.753869-.016737-1.484224-.100905-2.125-.173828-1.337143-.152423-2.421407-.275257-3.070313.228515 1.578271 1.783763 3.883802 2.910156 6.453125 2.910156 4.757886 0 8.617188-3.856899 8.617188-8.615234 0-4.757618-3.858824-8.615234-8.617188-8.615234zm2.275391 4.560547c-.659546.009922-1.279145.256538-1.763672.710937-.519077.480699-.818765 1.13615-.84375 1.84375-.047341 1.458475 1.101465 2.689627 2.560547 2.744141.710473.022953 1.381034-.228127 1.898437-.712891.515969-.482253.813902-1.135273.839844-1.841797.049971-1.460507-1.097121-2.691659-2.558594-2.74414-.044352-.001555-.088938-.000718-.132812 0zm-.070313.78125c.060731-.003706.120074-.002272.181641 0 1.018906.035744 1.819227.888984 1.785156 1.910156-.015422.491339-.225381.950983-.585937 1.289062-.361513.33545-.831125.509323-1.326172.494141-1.018668-.037777-1.815082-.896518-1.78125-1.916016.015541-.49349.227533-.94875.585937-1.285156.314531-.294803.714915-.466246 1.140625-.492187zm.486328.923828c-.454162 0-.822265.246015-.822265.548828 0 .3009.368103.548828.822265.548828.452728 0 .81836-.24745.81836-.548828 0-.302813-.365632-.548828-.81836-.548828z" fill="#673AB7"/></svg>

<svg fill="#673AB7" height="48" version="1.1" viewBox="0 0 48 48" width="48" xmlns="http://www.w3.org/2000/svg"><path d="M8 8C5.79 8 4.019531 9.79 4.019531 12L4 36C4 38.21 5.79 40 8 40L40 40C42.21 40 44 38.21 44 36L44 16C44 13.79 42.21 12 40 12L24 12 20 8 8 8zM29 16C34.522275 16 39 20.477161 39 26 39 31.522959 34.522275 36 29 36 23.477606 36 19 31.522959 19 26 19 20.477161 23.477486 16 29 16zM29.048828 17.384766C25.745003 17.384766 23.85706 18.737373 22.625 20.261719 23.56907 20.520658 24.226897 20.736347 24.439453 20.806641 24.442083 20.663901 24.464844 19.376953 24.464844 19.376953L24.484375 19.337891 24.53125 19.322266C24.821273 19.364585 31.01794 20.280141 33.626953 21.800781 33.949613 21.990263 34.106757 22.190106 34.306641 22.394531 35.027395 23.139908 35.985039 26.243634 36.085938 26.884766L36.046875 26.951172C36.009576 26.96492 35.917659 27.028322 35.798828 27.109375 35.19009 27.534963 33.767899 28.531247 31.943359 28.369141 30.302326 28.222934 28.160718 27.280756 25.578125 25.580078 25.691815 25.848222 26.228698 27.123782 26.318359 27.337891L26.355469 27.380859C26.729654 27.573928 30.317469 29.404486 32.097656 29.367188 33.534383 29.338496 35.067762 28.637617 35.681641 28.269531L35.876953 28.232422C35.931587 28.2751 35.923106 28.356605 35.90625 28.433594 35.868592 28.609567 35.783188 28.932119 35.724609 29.082031L35.677734 29.207031C35.607918 29.392568 35.538749 29.572693 35.408203 29.679688 35.046212 30.009159 34.468713 30.269358 33.564453 30.666016 32.165623 31.27738 29.897449 31.662584 27.791016 31.650391 27.037147 31.633654 26.306792 31.549486 25.666016 31.476563 24.328873 31.32414 23.244609 31.201306 22.595703 31.705078 24.173974 33.488841 26.479505 34.615234 29.048828 34.615234 33.806714 34.615234 37.666016 30.758335 37.666016 26 37.666016 21.242382 33.807192 17.384766 29.048828 17.384766zM31.324219 21.945313C30.664673 21.955235 30.045074 22.201851 29.560547 22.65625 29.04147 23.136949 28.741782 23.7924 28.716797 24.5 28.669456 25.958475 29.818262 27.189627 31.277344 27.244141 31.987817 27.267094 32.658378 27.016014 33.175781 26.53125 33.69175 26.048997 33.989683 25.395977 34.015625 24.689453 34.065596 23.228946 32.918504 21.997794 31.457031 21.945313 31.412679 21.943758 31.368093 21.944595 31.324219 21.945313zM31.253906 22.726563C31.314637 22.722857 31.37398 22.724291 31.435547 22.726563 32.454453 22.762307 33.254774 23.615547 33.220703 24.636719 33.205281 25.128058 32.995322 25.587702 32.634766 25.925781 32.273253 26.261231 31.803641 26.435104 31.308594 26.419922 30.289926 26.382145 29.493512 25.523404 29.527344 24.503906 29.542885 24.010416 29.754877 23.555156 30.113281 23.21875 30.427812 22.923947 30.828196 22.752504 31.253906 22.726563zM31.740234 23.650391C31.286072 23.650391 30.917969 23.896406 30.917969 24.199219 30.917969 24.500119 31.286072 24.748047 31.740234 24.748047 32.192962 24.748047 32.558594 24.500597 32.558594 24.199219 32.558594 23.896406 32.192962 23.650391 31.740234 23.650391z"/></svg>
